
startshape GARDEN

shape curve(number shrink, number turn)
{
  SQUARE []
  curve(=) [[y 0.5 r turn s shrink y 0.5]]
}

shape GARDEN {
  foo = curve(rand(0.95, 0.99), rand(-4, 4))
  bar = foo
  bar[]
}
