startshape switchtest

shape switchtest
{
  switch (randint(3)) {
    case 0:
      SQUARE []
    case 1:
      TRIANGLE []
    case 2: {
      CIRCLE []
    }
  }

  if (randint(2))
    CIRCLE [size 0.5 b 1]
}
